cps (1)

m1
$ density 8
$ stack [
  n "c5" # velocity (scale 0.1 0.4 sine1),
  n "[[[c3 c3 c3 [d2, c3]]/4 ! [c2 d2 d4 d4]/4 e4]/4 ! ~ [f3 f3 d3 e3]/4]/4"
]

m1 $ silence



d1 $ stack [
  every (3) (density 1.1)
    $ sound "bd*4" # n "2"
    # speed "0.8"
    # gain "0.9"
    # accelerate "-8"
    # pan "0.7",
  every (3) (density 1.2)
    $ sound "hh*4" # n "7"
    # speed "0.5"
    # gain "0.9"
    # pan "0.2"
    # accelerate "-3"
]


m1
$ slow (4)
$ stack [
  n "c5*8 d5*12"
]
