m2 $ whenmod 8 5 (rev) $ n "[c5*8?, [[c4 a5 g5 g4]/4]*8?]" # dur "0.8"


m3 $ jux (rev . density 1.5 . (|+| n "+24"))
  $ stack [
    n "[[~ a5] [~ g5] c5 f5]/4",
    n "[e4 [~ a6] g5 [~ d5]]/4"
  ] # dur "0.8"

m1 $ n "[a5 [b5 d6] c5 [d5 f6] e4 [f5 g4]]/3" # dur "0.8"

m2 $ n "[d4 e4 f4 g4 ~ e4 g4 b4 c4 d4]%2" # dur "0.8"

m2 $ silence

d1
$ slowspread ($) [id, id, id, density 4]
$ sound "[bd*4, hc*3]"


m2 $ silence
