cps (100/120)

m1 $ n "[d5 a5 c5 e5 e5 c5 a5 d5, d6 a5 c4]/2" # velocity "1"

m1 $ n "[a5 b5 c5 d5 e5 d5 c5 b5]/2" # velocity "0.5"

m2 $ n "[g5 a5 b5 c5, [g6 a6] [c6 c5] d6 e6]/2" # velocity "0.5"

m2 $ n "[g5 g6 c5 c6 b5 b6]/2" # velocity "0.7"

m3 $ n "g5*12" # velocity "0.8"

m1 $ n "g5 a5 c5 d5 g5 f5" # velocity "1"

m1 $ silence

m3 $ silence
