cps (40/120)

d1
$ every 6 (|=| speed "[-1, -0.5]")
$ density 4
$ s "hop*6"
|=| n "[2, 1] [3, 0]"
|=| beginend (scale 0 0.8 $ slow 12 $ sine1) "0.2"
|=| release (scale 0.1 0.5 $ slow 64 $ sine1)
|=| attack (scale 0 0.1 $ slow 32 $ sine1)
|=| pan "0.2 0.5 0.8"
|=| speed "[-2, 0.5] 1 -1 [2, -0.5]"
