
hush

do
  d1
    $ foldEvery [2,3] (fast 2)
    $ sound "<bd hc> [~]"


do
  d1
    $ stack [
      s "nu*16"
      |=| n "0"
      |=| release "0.2"
      |=| attack "0"
      |=| beginend (scale 0 0.5 $ slow 64 $ sine1) "0.01"
    ]

hush


do
  d1
    $ stack [
      s "nu(3,8)"
        |=| n "2"
        |=| pan (scale 0.1 0.4 $ slow 16 $ sine1)
        |=| gain (scale 0.2 0.8 $ slow 16 $ sine1)
        |+| gain (scale 0 0.2 $ slow 4 $ sine1)
        |+| gain "0.1"
        |=| release "0.5"
        |=| attack "0.1"
        |*| speed "2"
        |=| beginend (scale 0 0.5 $ slow 8 $ sine1) "0.1",
      s "nu*3"
        |=| n "2"
        |=| pan (scale 0.1 0.9 $ slow 2 $ sine1)
        |=| gain (scale 0.7 1 $ slow 4 $ sine1)
        |+| gain "0.2"
        |=| release "0.5"
        |=| attack "0.1"
        |=| accelerate "0.05"
        |*| speed "-1"
        |=| beginend (scale 0 0.5 $ slow 8 $ sine1) "0.1",
      s "nu*16"
        |=| n "2"
        |=| pan (scale 0.3 0.9 $ slow 8 $ sine1)
        |=| gain (scale 0.5 0.8 $ slow 16 $ sine1)
        |=| release (scale 0.5 1.5 $ slow 32 $ sine1)
        |=| attack "0.01"
        |*| speed "4"
        |=| beginend (scale 0 0.5 $ slow 8 $ sine1) (scale 0.1 0.3 $ slow 8 $ sine1)
    ]
